;FLAVOR:Marlin
;TIME:7163
;Filament used: 5.96784m
;Layer height: 0.2
;MINX:64.702
;MINY:81.739
;MINZ:0.2
;MAXX:145.301
;MAXY:128.228
;MAXZ:22.075
;Generated with Cura_SteamEngine 4.11.0
M140 S60
M105
M190 S60
M104 S200
M105
M109 S200
M82 ;absolute extrusion mode
G21 ;metric values
G90 ;absolute positioning
M82 ;set extruder to absolute mode
M107 ;start with the fan off
G28 X0 Y0 ;move X/Y to min endstops
G28 Z0 ;move Z to min endstops
G1 Z15.0 F100 ;move the platform down 15mm
G92 E0 ;zero the extruded length
G1 F200 E3 ;extrude 3mm of feed stock
G92 E0 ;zero the extruded length again
G1 F100
G0 Y20 F100
M117 Printing...
G5
G92 E0
G92 E0
G1 F2400 E-6
;LAYER_COUNT:110
;LAYER:0
M107
M204 S3000
M205 X10 Y10
G1 F600 Z0.275
G0 F3000 X76.041 Y83.561 Z0.275
M204 S1800
M205 X8 Y8
;TYPE:SKIRT
G1 F600 Z0.2
G1 F2400 E0
G1 X76.581 Y83.092 E0.0333
G1 X77.169 Y82.685 E0.0666
G1 X77.8 Y82.347 E0.09993
G1 X78.464 Y82.082 E0.13323
G1 X79.154 Y81.892 E0.16655
G1 X79.86 Y81.78 E0.19984
G1 X80.647 Y81.741 E0.23653
G1 X80.826 Y81.739 E0.24486
G1 X129.789 Y81.739 E2.52478
G1 X130.579 Y81.75 E2.56157
G1 X131.292 Y81.8 E2.59486
G1 X131.996 Y81.929 E2.62818
G1 X132.68 Y82.137 E2.66147
G1 X133.337 Y82.419 E2.69476
G1 X133.959 Y82.773 E2.72809
G1 X134.537 Y83.194 E2.76139
G1 X135.065 Y83.677 E2.79471
G1 X135.535 Y84.215 E2.82797
G1 X135.943 Y84.803 E2.8613
G1 X136.282 Y85.433 E2.89461
G1 X136.549 Y86.096 E2.92789
G1 X136.74 Y86.786 E2.96123
G1 X136.809 Y87.156 E2.97875
G1 X137.248 Y89.953 E3.11059
G1 X137.736 Y92.567 E3.23441
G1 X138.29 Y95.128 E3.35642
G1 X138.924 Y97.709 E3.48017
G1 X139.634 Y100.281 E3.60442
G1 X140.404 Y102.789 E3.72658
G1 X141.262 Y105.326 E3.85129
G1 X142.172 Y107.786 E3.97342
G1 X143.447 Y110.924 E4.13114
G1 X143.657 Y111.416 E4.15605
G1 X143.744 Y111.632 E4.16689
G1 X144.052 Y112.374 E4.2043
G1 X144.289 Y113.049 E4.23761
G1 X144.38 Y113.403 E4.25463
G1 X144.696 Y114.784 E4.3206
G1 X144.857 Y115.506 E4.35504
G1 X145.133 Y116.689 E4.41161
G1 X145.257 Y117.394 E4.44494
G1 X145.301 Y118.108 E4.47825
G1 X145.265 Y118.822 E4.51154
G1 X145.172 Y119.433 E4.54032
G1 X145.049 Y119.972 E4.56606
G1 X144.983 Y120.214 E4.57774
G1 X144.757 Y120.892 E4.61102
G1 X144.456 Y121.541 E4.64433
G1 X144.159 Y122.043 E4.67149
G1 X144.05 Y122.209 E4.68074
G1 X143.575 Y122.843 E4.71763
G1 X143.387 Y123.064 E4.73114
G1 X142.894 Y123.582 E4.76444
G1 X142.346 Y124.042 E4.79775
G1 X141.691 Y124.48 E4.83444
G1 X141.437 Y124.632 E4.84823
G1 X140.804 Y124.964 E4.88151
G1 X140.149 Y125.22 E4.91425
G1 X139.438 Y125.443 E4.94895
G1 X138.51 Y125.646 E4.99319
G1 X137.989 Y125.72 E5.01769
G1 X137.689 Y125.757 E5.03176
G1 X137.138 Y125.793 E5.05748
G1 X136.436 Y125.797 E5.09016
G1 X134.231 Y125.746 E5.19287
G1 X131.565 Y125.761 E5.31701
G1 X131.043 Y125.776 E5.34132
G1 X130.14 Y125.791 E5.38338
G1 X129.956 Y125.792 E5.39195
G1 X129.04 Y125.78 E5.4346
G1 X128.023 Y125.753 E5.48197
G1 X125.369 Y125.759 E5.60556
G1 X123.793 Y125.804 E5.67897
G1 X123.224 Y125.812 E5.70547
G1 X122.633 Y125.806 E5.73299
G1 X120.797 Y125.748 E5.81852
G1 X118.164 Y125.737 E5.94113
G1 X115.831 Y125.797 E6.0498
G1 X115.279 Y125.802 E6.0755
G1 X114.207 Y125.787 E6.12543
G1 X111.452 Y125.786 E6.25371
G1 X110.88 Y125.791 E6.28035
G1 X110 Y125.778 E6.32133
G1 X106.578 Y125.784 E6.48067
G1 X106.453 Y125.782 E6.48649
G1 X104.29 Y125.792 E6.58721
G1 X101.463 Y125.779 E6.71885
G1 X101.051 Y125.783 E6.73803
G1 X99.014 Y125.767 E6.83289
G1 X96.314 Y125.785 E6.95861
G1 X93.68 Y125.875 E7.08134
G1 X91.066 Y126.04 E7.2033
G1 X88.376 Y126.285 E7.32907
G1 X85.773 Y126.598 E7.45115
G1 X83.158 Y126.986 E7.57425
G1 X82.683 Y127.067 E7.59669
G1 X81.412 Y127.255 E7.65651
G1 X80.487 Y127.38 E7.69998
G1 X77.831 Y127.813 E7.82529
G1 X77.489 Y127.877 E7.84149
G1 X76.088 Y128.129 E7.90777
G1 X75.183 Y128.226 E7.95015
G1 X74.513 Y128.228 E7.98135
G1 X73.8 Y128.177 E8.01464
G1 X73.096 Y128.047 E8.04797
G1 X72.588 Y127.901 E8.07258
G1 X72.318 Y127.811 E8.08584
G1 X71.653 Y127.547 E8.11915
G1 X71.117 Y127.267 E8.14731
G1 X70.937 Y127.162 E8.15701
G1 X70.341 Y126.768 E8.19028
G1 X69.637 Y126.159 E8.23363
G1 X69.251 Y125.759 E8.25951
G1 X68.789 Y125.213 E8.29281
G1 X68.324 Y124.503 E8.33233
G1 X68.071 Y124.054 E8.35633
G1 X67.692 Y123.257 E8.39743
G1 X67.43 Y122.59 E8.43079
G1 X67.249 Y122.103 E8.45499
G1 X66.546 Y120.312 E8.54458
G1 X66.37 Y119.803 E8.56966
G1 X65.972 Y118.466 E8.63461
G1 X65.293 Y116.281 E8.74115
G1 X65.032 Y115.435 E8.78238
G1 X64.901 Y114.926 E8.80685
G1 X64.762 Y114.225 E8.84013
G1 X64.702 Y113.512 E8.87345
G1 X64.728 Y112.727 E8.91002
G1 X64.808 Y112.085 E8.94015
G1 X64.95 Y111.384 E8.97345
G1 X65.169 Y110.703 E9.00676
G1 X65.474 Y110.029 E9.04121
G1 X65.903 Y109.211 E9.08422
G1 X67.097 Y106.86 E9.207
G1 X68.239 Y104.445 E9.33139
G1 X69.303 Y102.018 E9.45479
G1 X70.304 Y99.552 E9.57871
G1 X71.223 Y97.08 E9.70152
G1 X72.072 Y94.587 E9.82415
G1 X72.856 Y92.055 E9.94757
G1 X73.571 Y89.488 E10.07165
G1 X73.962 Y87.955 E10.14532
G1 X74.287 Y86.627 E10.20898
G1 X74.496 Y85.942 E10.24233
G1 X74.78 Y85.286 E10.27562
G1 X75.135 Y84.665 E10.30892
G1 X75.557 Y84.088 E10.34221
G1 X76.041 Y83.561 E10.37553
M204 S3000
M205 X10 Y10
G0 F3000 X76.543 Y83.857
M204 S1800
M205 X8 Y8
G1 F2400 X77.071 Y83.424 E10.40732
G1 X77.646 Y83.055 E10.43914
G1 X78.26 Y82.756 E10.47094
G1 X78.905 Y82.531 E10.50275
G1 X79.572 Y82.383 E10.53456
G1 X80.341 Y82.31 E10.57053
G1 X80.826 Y82.299 E10.59312
G1 X129.789 Y82.299 E12.87304
G1 X130.571 Y82.31 E12.90946
G1 X131.252 Y82.359 E12.94125
G1 X131.923 Y82.488 E12.97307
G1 X132.574 Y82.695 E13.00488
G1 X133.197 Y82.976 E13.0367
G1 X133.783 Y83.328 E13.06853
G1 X134.323 Y83.746 E13.10033
G1 X134.811 Y84.224 E13.13214
G1 X135.24 Y84.756 E13.16396
G1 X135.604 Y85.334 E13.19577
G1 X135.898 Y85.951 E13.22759
G1 X136.117 Y86.598 E13.2594
G1 X136.256 Y87.243 E13.29012
G1 X136.695 Y90.039 E13.42191
G1 X137.188 Y92.678 E13.54692
G1 X137.748 Y95.269 E13.67035
G1 X138.383 Y97.855 E13.79434
G1 X139.091 Y100.418 E13.91816
G1 X139.879 Y102.987 E14.04328
G1 X140.73 Y105.502 E14.16691
G1 X141.652 Y107.995 E14.29068
G1 X142.926 Y111.128 E14.44817
G1 X143.137 Y111.625 E14.47331
G1 X143.227 Y111.847 E14.48446
G1 X143.535 Y112.589 E14.52187
G1 X143.834 Y113.528 E14.56776
G1 X144.149 Y114.906 E14.63358
G1 X144.297 Y115.571 E14.6653
G1 X144.588 Y116.817 E14.72488
G1 X144.704 Y117.49 E14.75668
G1 X144.741 Y118.172 E14.78849
G1 X144.647 Y119.19 E14.83609
G1 X144.621 Y119.333 E14.84286
G1 X144.509 Y119.825 E14.86635
G1 X144.443 Y120.067 E14.87803
G1 X144.225 Y120.714 E14.90983
G1 X143.933 Y121.332 E14.94165
G1 X143.582 Y121.901 E14.97278
G1 X143.148 Y122.48 E15.00648
G1 X142.96 Y122.701 E15.01999
G1 X142.488 Y123.195 E15.0518
G1 X141.741 Y123.783 E15.09607
G1 X141.15 Y124.151 E15.12849
G1 X140.544 Y124.467 E15.16031
G1 X139.974 Y124.688 E15.18878
G1 X139.278 Y124.907 E15.22275
G1 X138.431 Y125.092 E15.26312
G1 X137.91 Y125.166 E15.28763
G1 X137.628 Y125.2 E15.30085
G1 X137.125 Y125.233 E15.32432
G1 X136.442 Y125.237 E15.35613
G1 X134.241 Y125.186 E15.45864
G1 X131.545 Y125.201 E15.58418
G1 X131.034 Y125.216 E15.60799
G1 X130.131 Y125.231 E15.65004
G1 X129.963 Y125.232 E15.65786
G1 X129.055 Y125.22 E15.70015
G1 X128.037 Y125.193 E15.74757
G1 X125.387 Y125.199 E15.87096
G1 X123.873 Y125.243 E15.94149
G1 X123.216 Y125.252 E15.97208
G1 X122.65 Y125.246 E15.99844
G1 X120.816 Y125.188 E16.08388
G1 X118.152 Y125.177 E16.20793
G1 X115.823 Y125.237 E16.31642
G1 X115.287 Y125.242 E16.34137
G1 X114.215 Y125.227 E16.3913
G1 X111.522 Y125.226 E16.51669
G1 X110.888 Y125.231 E16.54622
G1 X110.007 Y125.218 E16.58724
G1 X106.586 Y125.224 E16.74654
G1 X106.458 Y125.222 E16.7525
G1 X104.292 Y125.232 E16.85336
G1 X101.469 Y125.219 E16.98481
G1 X101.046 Y125.223 E17.00451
G1 X99.015 Y125.207 E17.09908
G1 X96.328 Y125.224 E17.22421
G1 X93.625 Y125.317 E17.35014
G1 X91.018 Y125.482 E17.47178
G1 X88.325 Y125.727 E17.59769
G1 X85.733 Y126.038 E17.71925
G1 X83.019 Y126.442 E17.84702
G1 X82.601 Y126.513 E17.86676
G1 X81.337 Y126.7 E17.92626
G1 X80.396 Y126.827 E17.97048
G1 X77.764 Y127.256 E18.09465
G1 X77.39 Y127.326 E18.11237
G1 X75.989 Y127.578 E18.17865
G1 X75.163 Y127.666 E18.21733
G1 X74.522 Y127.668 E18.24718
G1 X73.84 Y127.618 E18.27902
G1 X73.17 Y127.488 E18.3108
G1 X72.495 Y127.279 E18.3437
G1 X71.861 Y127.026 E18.37549
G1 X71.399 Y126.783 E18.3998
G1 X71.219 Y126.678 E18.4095
G1 X70.65 Y126.3 E18.44131
G1 X70.032 Y125.764 E18.4794
G1 X69.658 Y125.375 E18.50453
G1 X69.218 Y124.852 E18.53635
G1 X68.812 Y124.228 E18.57102
G1 X68.559 Y123.779 E18.59502
G1 X68.213 Y123.052 E18.63251
G1 X67.955 Y122.394 E18.66542
G1 X67.601 Y121.481 E18.71101
G1 X67.565 Y121.373 E18.71631
G1 X67.067 Y120.107 E18.77966
G1 X66.906 Y119.643 E18.80253
G1 X66.538 Y118.406 E18.86263
G1 X66.514 Y118.322 E18.86669
G1 X65.828 Y116.115 E18.97431
G1 X65.673 Y115.637 E18.99771
G1 X65.574 Y115.296 E19.01424
G1 X65.443 Y114.787 E19.03872
G1 X65.312 Y114.116 E19.07055
G1 X65.26 Y113.435 E19.10235
G1 X65.285 Y112.78 E19.13288
G1 X65.362 Y112.165 E19.16174
G1 X65.499 Y111.495 E19.19358
G1 X65.714 Y110.847 E19.22537
G1 X65.97 Y110.289 E19.25396
G1 X66.368 Y109.53 E19.29386
G1 X67.608 Y107.089 E19.42135
G1 X68.75 Y104.673 E19.54579
G1 X69.821 Y102.233 E19.66987
G1 X70.823 Y99.761 E19.79407
G1 X71.746 Y97.279 E19.91737
G1 X72.606 Y94.755 E20.04154
G1 X73.39 Y92.226 E20.16483
G1 X74.11 Y89.64 E20.28982
G1 X74.52 Y88.032 E20.36709
G1 X74.831 Y86.76 E20.42807
G1 X75.032 Y86.107 E20.45988
G1 X75.308 Y85.482 E20.49169
G1 X75.655 Y84.893 E20.52353
G1 X76.068 Y84.349 E20.55533
G1 X76.543 Y83.857 E20.58717
M204 S3000
M205 X10 Y10
G0 F3000 X77.041 Y84.162
M204 S1800
M205 X8 Y8
G1 F2400 X77.557 Y83.767 E20.61743
G1 X78.117 Y83.438 E20.64768
G1 X78.714 Y83.181 E20.67794
G1 X79.337 Y82.998 E20.70818
G1 X79.979 Y82.894 E20.73846
G1 X80.678 Y82.861 E20.77105
G1 X80.826 Y82.859 E20.77794
G1 X129.789 Y82.859 E23.05786
G1 X130.563 Y82.87 E23.0939
G1 X131.21 Y82.919 E23.12412
G1 X131.847 Y83.047 E23.15437
G1 X132.463 Y83.253 E23.18462
G1 X133.05 Y83.533 E23.2149
G1 X133.597 Y83.882 E23.24511
G1 X134.098 Y84.296 E23.27538
G1 X134.543 Y84.769 E23.30562
G1 X134.928 Y85.293 E23.33589
G1 X135.245 Y85.86 E23.36614
G1 X135.49 Y86.461 E23.39636
G1 X135.703 Y87.33 E23.43803
G1 X136.147 Y90.159 E23.57137
G1 X136.633 Y92.763 E23.69471
G1 X137.206 Y95.412 E23.82092
G1 X137.84 Y97.994 E23.94472
G1 X138.55 Y100.564 E24.06887
G1 X139.342 Y103.143 E24.19449
G1 X140.206 Y105.698 E24.32008
G1 X141.137 Y108.214 E24.445
G1 X142.385 Y111.286 E24.5994
G1 X142.618 Y111.835 E24.62717
G1 X142.71 Y112.062 E24.63858
G1 X143.018 Y112.804 E24.67599
G1 X143.289 Y113.653 E24.71748
G1 X143.602 Y115.028 E24.78315
G1 X143.752 Y115.698 E24.81512
G1 X144.043 Y116.944 E24.8747
G1 X144.151 Y117.585 E24.90497
G1 X144.18 Y118.234 E24.93522
G1 X144.096 Y119.09 E24.97527
G1 X143.969 Y119.677 E25.00323
G1 X143.903 Y119.919 E25.01491
G1 X143.694 Y120.534 E25.04516
G1 X143.411 Y121.119 E25.07542
G1 X143.114 Y121.594 E25.1015
G1 X142.722 Y122.117 E25.13194
G1 X142.534 Y122.338 E25.14545
G1 X142.083 Y122.806 E25.17571
G1 X141.431 Y123.317 E25.21429
G1 X140.862 Y123.671 E25.24549
G1 X140.285 Y123.969 E25.27573
G1 X139.8 Y124.156 E25.29993
G1 X139.118 Y124.37 E25.33322
G1 X138.352 Y124.538 E25.36973
G1 X137.831 Y124.612 E25.39424
G1 X137.112 Y124.674 E25.42784
G1 X136.448 Y124.677 E25.45876
G1 X134.215 Y124.626 E25.56276
G1 X131.524 Y124.641 E25.68807
G1 X131.025 Y124.656 E25.71132
G1 X129.97 Y124.672 E25.76045
G1 X129.07 Y124.66 E25.80236
G1 X128.05 Y124.633 E25.84987
G1 X125.37 Y124.639 E25.97466
G1 X123.777 Y124.684 E26.04887
G1 X123.063 Y124.693 E26.08212
G1 X122.668 Y124.686 E26.10051
G1 X120.836 Y124.628 E26.18586
G1 X118.14 Y124.617 E26.3114
G1 X115.816 Y124.678 E26.41965
G1 X115.295 Y124.682 E26.44391
G1 X114.223 Y124.667 E26.49384
G1 X111.515 Y124.666 E26.61993
G1 X110.896 Y124.671 E26.64876
G1 X110.014 Y124.658 E26.68983
G1 X106.594 Y124.664 E26.84908
G1 X106.464 Y124.662 E26.85513
G1 X104.295 Y124.672 E26.95613
G1 X101.417 Y124.659 E27.09015
G1 X101.042 Y124.663 E27.10761
G1 X99.016 Y124.647 E27.20195
G1 X96.305 Y124.665 E27.32819
G1 X93.639 Y124.756 E27.4524
G1 X90.933 Y124.927 E27.57865
G1 X88.277 Y125.169 E27.70284
G1 X85.653 Y125.484 E27.8259
G1 X82.965 Y125.883 E27.95244
G1 X82.519 Y125.959 E27.97351
G1 X81.262 Y126.145 E28.03267
G1 X80.305 Y126.274 E28.07764
G1 X77.697 Y126.699 E28.20068
G1 X77.291 Y126.775 E28.21991
G1 X75.89 Y127.027 E28.2862
G1 X75.143 Y127.107 E28.32118
G1 X74.53 Y127.108 E28.34972
G1 X73.883 Y127.058 E28.37994
G1 X72.942 Y126.838 E28.42494
G1 X72.672 Y126.748 E28.43819
G1 X72.07 Y126.505 E28.46842
G1 X71.502 Y126.195 E28.49855
G1 X70.962 Y125.834 E28.5288
G1 X70.428 Y125.368 E28.5618
G1 X70.065 Y124.99 E28.5862
G1 X69.648 Y124.491 E28.61648
G1 X69.3 Y123.953 E28.64632
G1 X69.047 Y123.504 E28.67032
G1 X68.734 Y122.847 E28.7042
G1 X68.48 Y122.199 E28.73661
G1 X68.307 Y121.735 E28.75967
G1 X68.12 Y121.271 E28.78297
G1 X68.086 Y121.17 E28.78793
G1 X67.588 Y119.902 E28.85136
G1 X67.443 Y119.482 E28.87205
G1 X67.076 Y118.253 E28.93178
G1 X67.037 Y118.117 E28.93836
G1 X66.381 Y116.006 E29.0413
G1 X66.206 Y115.465 E29.06777
G1 X66.117 Y115.156 E29.08275
G1 X65.986 Y114.647 E29.10722
G1 X65.863 Y114.009 E29.13748
G1 X65.819 Y113.361 E29.16772
G1 X65.843 Y112.833 E29.19233
G1 X65.916 Y112.245 E29.21992
G1 X66.049 Y111.609 E29.25018
G1 X66.258 Y110.994 E29.28042
G1 X66.466 Y110.549 E29.30329
G1 X66.863 Y109.792 E29.3431
G1 X68.12 Y107.317 E29.47235
G1 X69.256 Y104.916 E29.59604
G1 X70.338 Y102.448 E29.72152
G1 X71.343 Y99.971 E29.84599
G1 X72.274 Y97.466 E29.97043
G1 X73.14 Y94.925 E30.09543
G1 X73.93 Y92.374 E30.21978
G1 X74.652 Y89.782 E30.34507
G1 X75.05 Y88.221 E30.42008
G1 X75.375 Y86.893 E30.48374
G1 X75.568 Y86.273 E30.51398
G1 X75.836 Y85.681 E30.54424
G1 X76.174 Y85.126 E30.5745
G1 X76.578 Y84.617 E30.60476
G1 X77.041 Y84.162 E30.63498
M204 S3000
M205 X10 Y10
G0 F3000 X75.648 Y113
M204 S1800
M205 X8 Y8
;TYPE:SUPPORT
G1 F1500 X75.989 Y113.035 E30.65095
G1 X76.591 Y113.377 E30.68319
G1 X77.114 Y113.418 E30.70761
G1 X78.179 Y113.012 E30.76069
G1 X79.516 Y113.001 E30.82294
G1 X79.516 Y118.311 E31.0702
G1 X79.123 Y118.209 E31.08911
G1 X77.725 Y119.099 E31.16627
G1 X77.597 Y119.125 E31.17236
G1 X75.915 Y118.688 E31.25328
G1 X75.376 Y119.046 E31.28341
G1 X75.028 Y121.456 E31.39679
G1 X74.906 Y121.559 E31.40423
G1 X74.592 Y121.55 E31.41885
G1 X74.37 Y121.457 E31.43006
G1 X74.106 Y121.186 E31.44768
G1 X73.877 Y120.757 E31.47032
G1 X73.469 Y119.53 E31.53053
G1 X73.32 Y119.13 E31.55041
G1 X72.953 Y118.047 E31.60365
G1 X72.776 Y117.87 E31.61531
G1 X72.776 Y117.554 E31.63002
G1 X71.455 Y113.658 E31.82158
G1 X71.373 Y113.317 E31.83791
G1 X71.402 Y113.099 E31.84815
G1 X71.51 Y113.011 E31.85464
G1 X71.805 Y113.014 E31.86838
G1 X72.033 Y113.101 E31.87974
G1 X72.569 Y113.419 E31.90876
G1 X74.85 Y113.419 E32.01497
G1 X75.648 Y113 E32.05694
M204 S3000
M205 X10 Y10
G0 F3000 X80.035 Y118.9
M204 S1800
M205 X8 Y8
G1 F1500 X80.254 Y119.119 E32.07136
G1 X82.062 Y119.119 E32.15555
G1 X81.676 Y120.414 E32.21847
G1 X81.572 Y120.487 E32.22439
G1 X81.439 Y120.508 E32.23066
G1 X81.159 Y120.453 E32.24395
G1 X80.886 Y120.3 E32.25852
G1 X80.712 Y120.134 E32.26972
G1 X80.035 Y118.9 E32.33526
M204 S3000
M205 X10 Y10
G0 F3000 X80.712 Y119.677
M204 S1800
M205 X8 Y8
G1 F1500 X81.299 Y119.338 E32.36682
M204 S3000
M205 X10 Y10
G0 F3000 X77.775 Y118.804
M204 S1800
M205 X8 Y8
G1 F1500 X72.374 Y115.686 E32.65721
M204 S3000
M205 X10 Y10
G0 F3000 X72.252 Y115.324
M204 S1800
M205 X8 Y8
G1 F1500 X75.857 Y113.242 E32.85106
M204 S3000
M205 X10 Y10
G0 F3000 X72 Y113.338
M204 S1800
M205 X8 Y8
G1 F1500 X72 Y114.582 E32.90899
M204 S3000
M205 X10 Y10
G1 F2400 E26.90899
G0 F3000 X80.386 Y118.8
G0 X85.241 Y119.119
M204 S1800
M205 X8 Y8
G1 F2400 E32.90899
G1 F1500 X85.6 Y119.119 E32.92571
G1 X85.364 Y119.129 E32.9367
G1 X85.241 Y119.119 E32.94245
M204 S3000
M205 X10 Y10
G0 F3000 X92.001 Y119.119
M204 S1800
M205 X8 Y8
G1 F1500 X92.099 Y119.119 E32.94701
G1 X92.041 Y119.122 E32.94972
G1 X92.001 Y119.119 E32.95159
M204 S3000
