;FLAVOR:Marlin
;TIME:4710
;Filament used: 3.42845m
;Layer height: 0.2
;MINX:58.6
;MINY:78.6
;MINZ:0.2
;MAXX:151.4
;MAXY:131.4
;MAXZ:5.075
;Generated with Cura_SteamEngine 4.11.0
M140 S60
M105
M190 S60
M104 S200
M105
M109 S200
M82 ;absolute extrusion mode
G21 ;metric values
G90 ;absolute positioning
M82 ;set extruder to absolute mode
M107 ;start with the fan off
G28 X0 Y0 ;move X/Y to min endstops
G28 Z0 ;move Z to min endstops
G1 Z15.0 F100 ;move the platform down 15mm
G92 E0 ;zero the extruded length
G1 F200 E3 ;extrude 3mm of feed stock
G92 E0 ;zero the extruded length again
G1 F100
G0 Y20 F100
M117 Printing...
G5
G92 E0
G92 E0
G1 F2400 E-6
;LAYER_COUNT:25
;LAYER:0
M107
M204 S3000
M205 X10 Y10
G1 F600 Z0.275
G0 F3000 X61.071 Y79.964 Z0.275
M204 S1800
M205 X8 Y8
;TYPE:SKIRT
G1 F600 Z0.2
G1 F2400 E0
G1 X61.659 Y79.556 E0.03333
G1 X62.288 Y79.216 E0.06662
G1 X62.952 Y78.949 E0.09994
G1 X63.641 Y78.757 E0.13325
G1 X64.347 Y78.643 E0.16655
G1 X65.151 Y78.603 E0.20403
G1 X65.33 Y78.6 E0.21237
G1 X144.293 Y78.6 E3.88922
G1 X145.083 Y78.611 E3.92601
G1 X145.796 Y78.661 E3.95929
G1 X146.5 Y78.79 E3.99262
G1 X147.184 Y78.998 E4.02591
G1 X147.841 Y79.28 E4.0592
G1 X148.463 Y79.634 E4.09252
G1 X149.041 Y80.055 E4.12582
G1 X149.569 Y80.538 E4.15914
G1 X150.039 Y81.076 E4.1924
G1 X150.447 Y81.664 E4.22573
G1 X150.786 Y82.294 E4.25904
G1 X151.053 Y82.957 E4.29232
G1 X151.244 Y83.647 E4.32566
G1 X151.357 Y84.353 E4.35895
G1 X151.397 Y85.15 E4.39611
G1 X151.4 Y85.33 E4.4045
G1 X151.4 Y124.343 E6.2211
G1 X151.391 Y125.07 E6.25496
G1 X151.342 Y125.784 E6.28828
G1 X151.214 Y126.488 E6.3216
G1 X151.008 Y127.173 E6.35491
G1 X150.727 Y127.83 E6.38818
G1 X150.374 Y128.453 E6.42153
G1 X149.954 Y129.032 E6.45483
G1 X149.472 Y129.56 E6.48812
G1 X148.935 Y130.032 E6.52141
G1 X148.347 Y130.44 E6.55474
G1 X147.718 Y130.781 E6.58806
G1 X147.055 Y131.049 E6.62135
G1 X146.366 Y131.241 E6.65466
G1 X145.66 Y131.356 E6.68797
G1 X144.849 Y131.397 E6.72578
G1 X144.67 Y131.4 E6.73411
G1 X65.624 Y131.399 E10.41483
G1 X64.926 Y131.39 E10.44733
G1 X64.213 Y131.341 E10.48061
G1 X63.509 Y131.213 E10.51393
G1 X62.824 Y131.007 E10.54724
G1 X62.167 Y130.725 E10.58053
G1 X61.545 Y130.372 E10.61383
G1 X60.966 Y129.952 E10.64714
G1 X60.437 Y129.47 E10.68046
G1 X59.966 Y128.932 E10.71376
G1 X59.558 Y128.345 E10.74704
G1 X59.218 Y127.715 E10.78038
G1 X58.95 Y127.052 E10.81368
G1 X58.758 Y126.363 E10.84698
G1 X58.644 Y125.657 E10.88028
G1 X58.602 Y124.831 E10.91879
G1 X58.6 Y124.658 E10.92685
G1 X58.601 Y85.587 E12.74616
G1 X58.61 Y84.922 E12.77713
G1 X58.659 Y84.209 E12.81041
G1 X58.788 Y83.505 E12.84373
G1 X58.995 Y82.821 E12.87701
G1 X59.277 Y82.163 E12.91035
G1 X59.63 Y81.541 E12.94365
G1 X60.05 Y80.963 E12.97692
G1 X60.533 Y80.435 E13.01024
G1 X61.071 Y79.964 E13.04353
M204 S3000
M205 X10 Y10
G0 F3000 X61.612 Y80.259
M204 S1800
M205 X8 Y8
G1 F2400 X62.19 Y79.894 E13.07536
G1 X62.807 Y79.6 E13.10719
G1 X63.453 Y79.38 E13.13897
G1 X64.121 Y79.237 E13.17078
G1 X64.845 Y79.171 E13.20463
G1 X65.33 Y79.16 E13.22722
G1 X144.293 Y79.16 E16.90407
G1 X145.075 Y79.171 E16.94048
G1 X145.756 Y79.22 E16.97227
G1 X146.427 Y79.349 E17.00409
G1 X147.078 Y79.556 E17.0359
G1 X147.701 Y79.837 E17.06772
G1 X148.287 Y80.189 E17.09955
G1 X148.827 Y80.607 E17.13135
G1 X149.315 Y81.085 E17.16316
G1 X149.744 Y81.617 E17.19498
G1 X150.108 Y82.195 E17.22679
G1 X150.402 Y82.812 E17.25861
G1 X150.621 Y83.459 E17.29042
G1 X150.764 Y84.127 E17.32223
G1 X150.829 Y84.846 E17.35585
G1 X150.84 Y85.33 E17.37839
G1 X150.84 Y124.336 E19.19467
G1 X150.831 Y125.063 E19.22853
G1 X150.782 Y125.745 E19.26037
G1 X150.654 Y126.416 E19.29217
G1 X150.449 Y127.068 E19.324
G1 X150.169 Y127.691 E19.3558
G1 X149.819 Y128.277 E19.38759
G1 X149.402 Y128.819 E19.41943
G1 X148.925 Y129.308 E19.45124
G1 X148.394 Y129.737 E19.48303
G1 X147.816 Y130.102 E19.51486
G1 X147.2 Y130.397 E19.54666
G1 X146.553 Y130.618 E19.5785
G1 X145.885 Y130.762 E19.61032
G1 X145.155 Y130.829 E19.64445
G1 X144.67 Y130.84 E19.66704
G1 X65.632 Y130.84 E23.34738
G1 X64.934 Y130.831 E23.37988
G1 X64.252 Y130.782 E23.41172
G1 X63.581 Y130.654 E23.44353
G1 X62.93 Y130.448 E23.47533
G1 X62.306 Y130.168 E23.50717
G1 X61.72 Y129.817 E23.53898
G1 X61.179 Y129.4 E23.57079
G1 X60.69 Y128.922 E23.60263
G1 X60.261 Y128.391 E23.63441
G1 X59.896 Y127.813 E23.66625
G1 X59.602 Y127.197 E23.69803
G1 X59.381 Y126.55 E23.72986
G1 X59.237 Y125.882 E23.76168
G1 X59.171 Y125.149 E23.79595
G1 X59.16 Y124.658 E23.81882
G1 X59.161 Y85.595 E25.63776
G1 X59.17 Y84.93 E25.66873
G1 X59.219 Y84.249 E25.70052
G1 X59.347 Y83.577 E25.73237
G1 X59.553 Y82.926 E25.76417
G1 X59.834 Y82.303 E25.79599
G1 X60.185 Y81.717 E25.8278
G1 X60.603 Y81.176 E25.85963
G1 X61.08 Y80.688 E25.89141
G1 X61.612 Y80.259 E25.92323
M204 S3000
M205 X10 Y10
G0 F3000 X61.626 Y80.955
M204 S1800
M205 X8 Y8
G1 F2400 X62.149 Y80.571 E25.95344
G1 X62.716 Y80.253 E25.98371
G1 X63.317 Y80.007 E26.01395
G1 X63.944 Y79.837 E26.0442
G1 X64.861 Y79.731 E26.08719
G1 X65.33 Y79.72 E26.10903
G1 X144.293 Y79.72 E29.78588
G1 X145.067 Y79.731 E29.82192
G1 X145.714 Y79.78 E29.85214
G1 X146.351 Y79.908 E29.88239
G1 X146.967 Y80.114 E29.91264
G1 X147.554 Y80.394 E29.94292
G1 X148.101 Y80.743 E29.97313
G1 X148.602 Y81.157 E30.0034
G1 X149.047 Y81.63 E30.03364
G1 X149.432 Y82.154 E30.06391
G1 X149.749 Y82.721 E30.09416
G1 X149.994 Y83.322 E30.12438
G1 X150.163 Y83.949 E30.15462
G1 X150.269 Y84.862 E30.19742
G1 X150.28 Y85.33 E30.21922
G1 X150.28 Y124.329 E32.03517
G1 X150.271 Y125.056 E32.06903
G1 X150.223 Y125.704 E32.09929
G1 X150.095 Y126.341 E32.12954
G1 X149.891 Y126.958 E32.1598
G1 X149.612 Y127.545 E32.19006
G1 X149.264 Y128.093 E32.22029
G1 X148.851 Y128.594 E32.25052
G1 X148.379 Y129.041 E32.28079
G1 X147.856 Y129.426 E32.31103
G1 X147.29 Y129.744 E32.34126
G1 X146.688 Y129.991 E32.37156
G1 X146.062 Y130.161 E32.40177
G1 X145.139 Y130.269 E32.44504
G1 X144.67 Y130.28 E32.46688
G1 X65.639 Y130.28 E36.1469
G1 X64.941 Y130.271 E36.1794
G1 X64.293 Y130.222 E36.20966
G1 X63.656 Y130.095 E36.23991
G1 X63.04 Y129.89 E36.27014
G1 X62.453 Y129.611 E36.3004
G1 X61.905 Y129.262 E36.33065
G1 X61.404 Y128.849 E36.36089
G1 X60.957 Y128.377 E36.39116
G1 X60.572 Y127.854 E36.4214
G1 X60.254 Y127.287 E36.45167
G1 X60.008 Y126.686 E36.48191
G1 X59.838 Y126.059 E36.51216
G1 X59.731 Y125.134 E36.55552
G1 X59.72 Y124.658 E36.57769
G1 X59.72 Y85.603 E38.39625
G1 X59.729 Y84.938 E38.42722
G1 X59.778 Y84.29 E38.45748
G1 X59.906 Y83.653 E38.48773
G1 X60.111 Y83.036 E38.51801
G1 X60.391 Y82.45 E38.54825
G1 X60.74 Y81.902 E38.5785
G1 X61.154 Y81.401 E38.60877
G1 X61.626 Y80.955 E38.639
M204 S3000
M205 X10 Y10
G1 F2400 E32.639
;MESH:ss v1.stl
G0 F3000 X65.854 Y84.335
G0 X65.854 Y85.854
G0 X143.6 Y123.6
M204 S1800
M205 X8 Y8
;TYPE:WALL-INNER
G1 F2400 E38.639
G1 F1500 X66.4 Y123.6 E42.23376
G1 X66.4 Y86.4 E43.96595
G1 X143.6 Y86.4 E47.5607
G1 X143.6 Y123.6 E49.29289
M204 S3000
M205 X10 Y10
G0 F3000 X144.16 Y124.16
M204 S1800
M205 X8 Y8
G1 F1500 X65.84 Y124.16 E52.9398
G1 X65.84 Y85.84 E54.72414
G1 X144.16 Y85.84 E58.37104
G1 X144.16 Y124.16 E60.15538
M204 S3000
M205 X10 Y10
G0 F3000 X144.72 Y124.72
M204 S1800
M205 X8 Y8
;TYPE:WALL-OUTER
G1 F1500 X65.28 Y124.72 E63.85444
G1 X65.28 Y85.28 E65.69093
G1 X144.72 Y85.28 E69.38999
G1 X144.72 Y124.72 E71.22649
M204 S3000
M205 X10 Y10
G0 F3000 X144.52 Y124.72
G0 X144.09 Y124.09
G0 X143.05 Y123.05
M204 S1800
M205 X8 Y8
;TYPE:SKIN
G1 F1500 X66.95 Y123.05 E74.77002
G1 X66.95 Y86.95 E76.45099
G1 X143.05 Y86.95 E79.99452
G1 X143.05 Y123.05 E81.67549
M204 S3000
M205 X10 Y10
G0 F3000 X142.789 Y87.352
M204 S1800
M205 X8 Y8
G1 F1500 X142.647 Y87.21 E81.68484
M204 S3000
M205 X10 Y10
G0 F3000 X141.855 Y87.21
M204 S1800
M205 X8 Y8
G1 F1500 X142.789 Y88.144 E81.74635
M204 S3000
M205 X10 Y10
G0 F3000 X142.789 Y88.936
M204 S1800
M205 X8 Y8
G1 F1500 X141.063 Y87.21 E81.86001
M204 S3000
M205 X10 Y10
G0 F3000 X140.271 Y87.21
M204 S1800
M205 X8 Y8
G1 F1500 X142.789 Y89.728 E82.02582
M204 S3000
M205 X10 Y10
G0 F3000 X142.789 Y90.52
M204 S1800
M205 X8 Y8
G1 F1500 X139.479 Y87.21 E82.24379
M204 S3000
M205 X10 Y10
G0 F3000 X138.687 Y87.21
M204 S1800
M205 X8 Y8
G1 F1500 X142.789 Y91.312 E82.51391
M204 S3000
M205 X10 Y10
G0 F3000 X142.789 Y92.104
M204 S1800
M205 X8 Y8
G1 F1500 X137.895 Y87.21 E82.83619
M204 S3000
M205 X10 Y10
G0 F3000 X137.103 Y87.21
M204 S1800
M205 X8 Y8
G1 F1500 X142.789 Y92.896 E83.21062
M204 S3000
M205 X10 Y10
G0 F3000 X142.789 Y93.688
M204 S1800
M205 X8 Y8
G1 F1500 X136.311 Y87.21 E83.63721
M204 S3000
M205 X10 Y10
G0 F3000 X135.519 Y87.21
M204 S1800
M205 X8 Y8
G1 F1500 X142.789 Y94.48 E84.11595
M204 S3000
M205 X10 Y10
G0 F3000 X142.789 Y95.272
M204 S1800
M205 X8 Y8
G1 F1500 X134.727 Y87.21 E84.64685
M204 S3000
M205 X10 Y10
G0 F3000 X133.935 Y87.21
M204 S1800
M205 X8 Y8
G1 F1500 X142.789 Y96.063 E85.22987
M204 S3000
M205 X10 Y10
G0 F3000 X142.789 Y96.855
M204 S1800
M205 X8 Y8
G1 F1500 X133.143 Y87.21 E85.86504
M204 S3000
M205 X10 Y10
G0 F3000 X132.352 Y87.21
M204 S1800
M205 X8 Y8
G1 F1500 X142.789 Y97.647 E86.55234
M204 S3000
M205 X10 Y10
G0 F3000 X142.789 Y98.439
M204 S1800
M205 X8 Y8
G1 F1500 X131.56 Y87.21 E87.29178
M204 S3000
M205 X10 Y10
G0 F3000 X130.768 Y87.21
M204 S1800
M205 X8 Y8
G1 F1500 X142.789 Y99.231 E88.08339
M204 S3000
M205 X10 Y10
G0 F3000 X142.789 Y100.023
M204 S1800
M205 X8 Y8
G1 F1500 X129.976 Y87.21 E88.92715
M204 S3000
M205 X10 Y10
G0 F3000 X129.184 Y87.21
M204 S1800
M205 X8 Y8
G1 F1500 X142.789 Y100.815 E89.82306
M204 S3000
M205 X10 Y10
G0 F3000 X142.789 Y101.607
M204 S1800
M205 X8 Y8
G1 F1500 X128.392 Y87.21 E90.77112
M204 S3000
M205 X10 Y10
G0 F3000 X127.6 Y87.21
M204 S1800
M205 X8 Y8
G1 F1500 X142.789 Y102.399 E91.77135
M204 S3000
M205 X10 Y10
G0 F3000 X142.789 Y103.191
M204 S1800
M205 X8 Y8
G1 F1500 X126.808 Y87.21 E92.82372
M204 S3000
M205 X10 Y10
G0 F3000 X126.016 Y87.21
M204 S1800
M205 X8 Y8
G1 F1500 X142.789 Y103.983 E93.92825
M204 S3000
M205 X10 Y10
G0 F3000 X142.789 Y104.775
M204 S1800
M205 X8 Y8
G1 F1500 X125.224 Y87.21 E95.08494
M204 S3000
M205 X10 Y10
G0 F3000 X124.432 Y87.21
M204 S1800
M205 X8 Y8
G1 F1500 X142.789 Y105.567 E96.29378
M204 S3000
M205 X10 Y10
G0 F3000 X142.789 Y106.359
M204 S1800
M205 X8 Y8
G1 F1500 X123.64 Y87.21 E97.55477
M204 S3000
M205 X10 Y10
G0 F3000 X122.848 Y87.21
M204 S1800
M205 X8 Y8
G1 F1500 X142.789 Y107.151 E98.86792
M204 S3000
M205 X10 Y10
G0 F3000 X142.789 Y107.943
M204 S1800
M205 X8 Y8
G1 F1500 X122.056 Y87.21 E100.23322
M204 S3000
M205 X10 Y10
G0 F3000 X121.264 Y87.21
M204 S1800
M205 X8 Y8
G1 F1500 X142.789 Y108.735 E101.65068
M204 S3000
M205 X10 Y10
G0 F3000 X142.789 Y109.527
M204 S1800
M205 X8 Y8
G1 F1500 X120.472 Y87.21 E103.1203
M204 S3000
M205 X10 Y10
G0 F3000 X119.68 Y87.21
M204 S1800
M205 X8 Y8
G1 F1500 X142.789 Y110.319 E104.64206
M204 S3000
M205 X10 Y10
G0 F3000 X142.789 Y111.111
M204 S1800
M205 X8 Y8
G1 F1500 X118.888 Y87.21 E106.21598
M204 S3000
M205 X10 Y10
G0 F3000 X118.096 Y87.21
M204 S1800
M205 X8 Y8
G1 F1500 X142.789 Y111.903 E107.84206
M204 S3000
M205 X10 Y10
G0 F3000 X142.789 Y112.695
M204 S1800
M205 X8 Y8
G1 F1500 X117.304 Y87.21 E109.52029
M204 S3000
M205 X10 Y10
G0 F3000 X116.512 Y87.21
M204 S1800
M205 X8 Y8
G1 F1500 X142.789 Y113.487 E111.25068
M204 S3000
M205 X10 Y10
G0 F3000 X142.789 Y114.279
M204 S1800
M205 X8 Y8
G1 F1500 X115.72 Y87.21 E113.03322
M204 S3000
M205 X10 Y10
G0 F3000 X114.928 Y87.21
M204 S1800
M205 X8 Y8
G1 F1500 X142.789 Y115.071 E114.86791
M204 S3000
M205 X10 Y10
G0 F3000 X142.789 Y115.862
M204 S1800
M205 X8 Y8
G1 F1500 X114.136 Y87.21 E116.75473
M204 S3000
M205 X10 Y10
G0 F3000 X113.344 Y87.21
M204 S1800
M205 X8 Y8
G1 F1500 X142.789 Y116.654 E118.6937
M204 S3000
M205 X10 Y10
G0 F3000 X142.789 Y117.446
M204 S1800
M205 X8 Y8
G1 F1500 X112.553 Y87.21 E120.68479
M204 S3000
M205 X10 Y10
G0 F3000 X111.761 Y87.21
M204 S1800
M205 X8 Y8
G1 F1500 X142.789 Y118.238 E122.72804
M204 S3000
M205 X10 Y10
G0 F3000 X142.789 Y119.03
M204 S1800
M205 X8 Y8
G1 F1500 X110.969 Y87.21 E124.82344
M204 S3000
M205 X10 Y10
G0 F3000 X110.177 Y87.21
M204 S1800
M205 X8 Y8
G1 F1500 X142.789 Y119.822 E126.97099
M204 S3000
M205 X10 Y10
G0 F3000 X142.789 Y120.614
M204 S1800
M205 X8 Y8
G1 F1500 X109.385 Y87.21 E129.1707
M204 S3000
M205 X10 Y10
G0 F3000 X108.593 Y87.21
M204 S1800
M205 X8 Y8
G1 F1500 X142.789 Y121.406 E131.42257
M204 S3000
M205 X10 Y10
G0 F3000 X142.789 Y122.198
M204 S1800
M205 X8 Y8
G1 F1500 X107.801 Y87.21 E133.72659
M204 S3000
M205 X10 Y10
G0 F3000 X107.009 Y87.21
M204 S1800
M205 X8 Y8
G1 F1500 X142.588 Y122.789 E136.06953
M204 S3000
M205 X10 Y10
G0 F3000 X141.796 Y122.789
M204 S1800
M205 X8 Y8
G1 F1500 X106.217 Y87.21 E138.41246
M204 S3000
M205 X10 Y10
G0 F3000 X105.425 Y87.21
M204 S1800
M205 X8 Y8
G1 F1500 X141.004 Y122.789 E140.7554
M204 S3000
M205 X10 Y10
G0 F3000 X140.212 Y122.789
M204 S1800
M205 X8 Y8
G1 F1500 X104.633 Y87.21 E143.09834
M204 S3000
M205 X10 Y10
G0 F3000 X103.841 Y87.21
M204 S1800
M205 X8 Y8
G1 F1500 X139.42 Y122.789 E145.44128
M204 S3000
M205 X10 Y10
G0 F3000 X138.628 Y122.789
M204 S1800
M205 X8 Y8
G1 F1500 X103.049 Y87.21 E147.78422
M204 S3000
M205 X10 Y10
G0 F3000 X102.257 Y87.21
M204 S1800
M205 X8 Y8
G1 F1500 X137.836 Y122.789 E150.12715
M204 S3000
M205 X10 Y10
G0 F3000 X137.044 Y122.789
M204 S1800
M205 X8 Y8
G1 F1500 X101.465 Y87.21 E152.47009
M204 S3000
M205 X10 Y10
G0 F3000 X100.673 Y87.21
M204 S1800
M205 X8 Y8
G1 F1500 X136.252 Y122.789 E154.81303
M204 S3000
M205 X10 Y10
G0 F3000 X135.46 Y122.789
M204 S1800
M205 X8 Y8
G1 F1500 X99.881 Y87.21 E157.15597
M204 S3000
M205 X10 Y10
G0 F3000 X99.089 Y87.21
M204 S1800
M205 X8 Y8
G1 F1500 X134.668 Y122.789 E159.49891
M204 S3000
M205 X10 Y10
G0 F3000 X133.876 Y122.789
M204 S1800
M205 X8 Y8
G1 F1500 X98.297 Y87.21 E161.84184
M204 S3000
M205 X10 Y10
G0 F3000 X97.505 Y87.21
M204 S1800
M205 X8 Y8
G1 F1500 X133.084 Y122.789 E164.18478
M204 S3000
M205 X10 Y10
G0 F3000 X132.292 Y122.789
M204 S1800
M205 X8 Y8
G1 F1500 X96.713 Y87.21 E166.52772
M204 S3000
M205 X10 Y10
G0 F3000 X95.921 Y87.21
M204 S1800
M205 X8 Y8
G1 F1500 X131.5 Y122.789 E168.87066
M204 S3000
M205 X10 Y10
G0 F3000 X130.708 Y122.789
M204 S1800
M205 X8 Y8
G1 F1500 X95.129 Y87.21 E171.2136
M204 S3000
M205 X10 Y10
G0 F3000 X94.337 Y87.21
M204 S1800
M205 X8 Y8
G1 F1500 X129.916 Y122.789 E173.55653
M204 S3000
M205 X10 Y10
G0 F3000 X129.124 Y122.789
M204 S1800
M205 X8 Y8
G1 F1500 X93.545 Y87.21 E175.89947
M204 S3000
M205 X10 Y10
G0 F3000 X92.754 Y87.21
M204 S1800
M205 X8 Y8
G1 F1500 X128.332 Y122.789 E178.24238
M204 S3000
M205 X10 Y10
G0 F3000 X127.54 Y122.789
M204 S1800
M205 X8 Y8
G1 F1500 X91.962 Y87.21 E180.58528
M204 S3000
M205 X10 Y10
G0 F3000 X91.17 Y87.21
M204 S1800
M205 X8 Y8
G1 F1500 X126.748 Y122.789 E182.92819
M204 S3000
M205 X10 Y10
G0 F3000 X125.956 Y122.789
M204 S1800
M205 X8 Y8
G1 F1500 X90.378 Y87.21 E185.27109
M204 S3000
M205 X10 Y10
G0 F3000 X89.586 Y87.21
M204 S1800
M205 X8 Y8
G1 F1500 X125.164 Y122.789 E187.614
M204 S3000
M205 X10 Y10
G0 F3000 X124.373 Y122.789
M204 S1800
M205 X8 Y8
G1 F1500 X88.794 Y87.21 E189.95693
M204 S3000
M205 X10 Y10
G0 F3000 X88.002 Y87.21
M204 S1800
M205 X8 Y8
G1 F1500 X123.581 Y122.789 E192.29987
M204 S3000
M205 X10 Y10
G0 F3000 X122.789 Y122.789
M204 S1800
M205 X8 Y8
G1 F1500 X87.21 Y87.21 E194.64281
M204 S3000
M205 X10 Y10
G0 F3000 X86.418 Y87.21
M204 S1800
M205 X8 Y8
G1 F1500 X121.997 Y122.789 E196.98575
M204 S3000
M205 X10 Y10
G0 F3000 X121.205 Y122.789
M204 S1800
M205 X8 Y8
G1 F1500 X85.626 Y87.21 E199.32869
M204 S3000
M205 X10 Y10
G0 F3000 X84.834 Y87.21
M204 S1800
M205 X8 Y8
G1 F1500 X120.413 Y122.789 E201.67162
M204 S3000
M205 X10 Y10
G0 F3000 X119.621 Y122.789
M204 S1800
M205 X8 Y8
G1 F1500 X84.042 Y87.21 E204.01456
M204 S3000
M205 X10 Y10
G0 F3000 X83.25 Y87.21
M204 S1800
M205 X8 Y8
G1 F1500 X118.829 Y122.789 E206.3575
M204 S3000
M205 X10 Y10
G0 F3000 X118.037 Y122.789
M204 S1800
M205 X8 Y8
G1 F1500 X82.458 Y87.21 E208.70044
M204 S3000
M205 X10 Y10
G0 F3000 X81.666 Y87.21
M204 S1800
M205 X8 Y8
G1 F1500 X117.245 Y122.789 E211.04338
M204 S3000
M205 X10 Y10
G0 F3000 X116.453 Y122.789
M204 S1800
M205 X8 Y8
